dist/svg/u1F58B.svg

<?xml version="1.0" encoding="UTF-8"?><svg id="a" xmlns="http://www.w3.org/2000/svg" viewBox="0 0 40 40"><g><path d="M35.033,2.152l-2.91,1.127c-5.908,2.288-10.924,6.415-14.307,11.771l-5.913,9.364,1.842,1.842,1.842,1.842,9.364-5.913c5.357-3.383,9.484-8.399,11.771-14.307l1.127-2.91c.683-1.763-1.052-3.498-2.815-2.815Z" fill="#4a4a4a"/><path d="M11.473,35.383l1.568-3.719c.491-1.165,1.206-2.223,2.104-3.114l.496-.492-3.692-3.692-.508,.508c-.885,.885-1.933,1.59-3.086,2.076l-3.738,1.576c-1.174,.495-1.948,1.627-1.985,2.9-.046,1.58-.062,4.001-.632,6.087l4.443-4.443c-.366-.714-.425-1.774,.172-2.372,.741-.741,1.943-.741,2.685,0s.741,1.943,0,2.685c-.598,.598-1.658,.539-2.372,.172l-4.443,4.443c2.086-.57,4.507-.586,6.087-.632,1.274-.037,2.405-.811,2.901-1.985Z" fill="#c2c2c2"/></g><rect y="0" width="40" height="40" fill="none"/></svg>

<svg id="Layer_1" data-name="Layer 1" xmlns="http://www.w3.org/2000/svg" viewBox="0 0 40 40"><defs><style>.cls-1{fill:#4a4a4a;}.cls-2{fill:#c2c2c2;}.cls-3{fill:none;}</style></defs><path class="cls-1" d="M35.033,2.152l-2.91,1.127A29.533,29.533,0,0,0,17.815,15.05L11.9,24.414l1.842,1.842L15.586,28.1l9.364-5.913A29.533,29.533,0,0,0,36.721,7.877l1.127-2.91A2.176,2.176,0,0,0,35.033,2.152Z"/><path class="cls-2" d="M11.473,35.383l1.568-3.719a9.682,9.682,0,0,1,2.1-3.114l.5-.492L11.95,24.367l-.509.508a9.679,9.679,0,0,1-3.085,2.076L4.617,28.527a3.248,3.248,0,0,0-1.985,2.9A26.585,26.585,0,0,1,2,37.515l4.443-4.443A2.124,2.124,0,0,1,6.615,30.7,1.9,1.9,0,1,1,9.3,33.385a2.124,2.124,0,0,1-2.372.172L2.485,38a26.585,26.585,0,0,1,6.087-.632A3.248,3.248,0,0,0,11.473,35.383Z"/><rect class="cls-3" width="40" height="40"/></svg>
